static/assets/img/icons/theme/communication/chat-locked.svg

<svg height="24" viewBox="0 0 24 24" width="24" xmlns="http://www.w3.org/2000/svg"><g fill="none" fill-rule="evenodd"><path d="m0 0h24v24h-24z" opacity="0"/><g fill="#000"><path d="m5 15-2 6.5 6.5-2z" opacity=".3"/><path d="m16 10v-.5c0-1.38071187-1.1192881-2.5-2.5-2.5s-2.5 1.11928813-2.5 2.5v.5c-.5522847 0-1 .4477153-1 1v3c0 .5522847.4477153 1 1 1h5c.5522847 0 1-.4477153 1-1v-3c0-.5522847-.4477153-1-1-1zm-2.5 11c-5.24670512 0-9.5-4.2532949-9.5-9.5 0-5.24670512 4.25329488-9.5 9.5-9.5 5.2467051 0 9.5 4.25329488 9.5 9.5 0 5.2467051-4.2532949 9.5-9.5 9.5zm0-13c.8284271 0 1.5.67157288 1.5 1.5v.5h-3v-.5c0-.82842712.6715729-1.5 1.5-1.5z"/></g></g></svg>

<svg width="24px" height="24px" viewBox="0 0 24 24" version="1.1" xmlns="http://www.w3.org/2000/svg" xmlns:xlink="http://www.w3.org/1999/xlink">
    <title>Icon For Chat-locked</title>
    <g stroke="none" stroke-width="1" fill="none" fill-rule="evenodd">
        <rect opacity="0" x="0" y="0" width="24" height="24"></rect>
        <polygon fill="#000000" opacity="0.3" points="5 15 3 21.5 9.5 19.5"></polygon>
        <path d="M16,10 L16,9.5 C16,8.11928813 14.8807119,7 13.5,7 C12.1192881,7 11,8.11928813 11,9.5 L11,10 C10.4477153,10 10,10.4477153 10,11 L10,14 C10,14.5522847 10.4477153,15 11,15 L16,15 C16.5522847,15 17,14.5522847 17,14 L17,11 C17,10.4477153 16.5522847,10 16,10 Z M13.5,21 C8.25329488,21 4,16.7467051 4,11.5 C4,6.25329488 8.25329488,2 13.5,2 C18.7467051,2 23,6.25329488 23,11.5 C23,16.7467051 18.7467051,21 13.5,21 Z M13.5,8 L13.5,8 C14.3284271,8 15,8.67157288 15,9.5 L15,10 L12,10 L12,9.5 C12,8.67157288 12.6715729,8 13.5,8 Z" fill="#000000"></path>
    </g>
</svg>
